flags/it-75.svg

<svg width="512" height="512" viewBox="0 0 512 512" fill="none" xmlns="http://www.w3.org/2000/svg">
<rect width="512" height="512" fill="var(--flag-palette-white, #eeeeee)"/>
<path d="M0 0H48V512H0V0Z" fill="var(--flag-palette-green, #6da544)"/>
<path d="M464 0H512V512H464V0Z" fill="var(--flag-palette-bright-red, #d80027)"/>
<path d="M208 408C191.026 408 174.747 401.257 162.745 389.255C150.743 377.252 144 360.974 144 344V342.4L148.8 288L144 249.6V184H209.6L256 187L302.4 184H368V249.6L364.5 300.2L368 342.4V344C368 360.974 361.257 377.252 349.255 389.255C337.252 401.257 320.974 408 304 408" fill="var(--flag-palette-light-blue, #338af3)"/>
<path d="M352 335.8L295.8 392H216.2L160 335.8V256.2L216.2 200H295.8L352 256.2V335.8Z" fill="var(--flag-palette-white, #eeeeee)"/>
<path d="M144 152H368V184H144V152Z" fill="var(--flag-palette-dark-yellow, #ffc635)"/>
<path d="M302.4 184H209.6L144 249.6V342.4L209.6 408H302.4L368 342.4V249.6L302.4 184ZM347.6 334L294 387.6H218L164.4 334V258L218 204.4H294L347.6 258V334Z" fill="var(--flag-palette-bright-red, #d80027)"/>
<path d="M243.686 308.425C243.686 321.862 229.765 331 229.765 331H282.237C282.237 331 268.315 321.862 268.315 308.425H243.686Z" fill="var(--flag-palette-green, #6da544)"/>
<path d="M256 245C251.181 245 246.898 247.15 243.685 250.375C241.223 248.924 238.439 248.113 235.586 248.017C232.733 247.921 229.901 248.541 227.347 249.823C224.794 251.105 222.6 253.007 220.965 255.356C219.33 257.705 218.305 260.427 217.985 263.275C214.915 264.69 212.331 266.984 210.556 269.868C208.781 272.753 207.895 276.1 208.01 279.489C208.124 282.878 209.234 286.157 211.199 288.914C213.164 291.672 215.898 293.785 219.055 294.988C219.371 297.729 220.339 300.354 221.877 302.64C223.415 304.927 225.479 306.809 227.894 308.127C230.31 309.444 233.005 310.159 235.754 310.211C238.502 310.263 241.222 309.65 243.685 308.425C246.898 311.65 251.181 313.8 256 313.8C260.819 313.8 265.102 311.65 268.315 308.425C270.457 310.038 273.134 310.575 275.811 310.575C284.913 310.575 292.409 303.588 292.945 294.988C296.102 293.785 298.836 291.672 300.801 288.914C302.766 286.157 303.876 282.878 303.99 279.489C304.105 276.1 303.219 272.753 301.444 269.868C299.669 266.984 297.085 264.69 294.015 263.275C293.695 260.427 292.67 257.705 291.035 255.356C289.4 253.007 287.206 251.105 284.653 249.823C282.099 248.541 279.267 247.921 276.414 248.017C273.561 248.113 270.777 248.924 268.315 250.375C265.102 247.15 260.819 245 256 245Z" fill="var(--flag-palette-dark-green, #496e2d)"/>
<path d="M352 120L336 104L320 120L304 104L288 120L272 104L256 120L240 104L224 120L208 104L192 120L176 104L160 120L144 104V136H368V104L352 120Z" fill="var(--flag-palette-dark-yellow, #ffc635)"/>
</svg>

<svg xmlns="http://www.w3.org/2000/svg" width="512" height="512" fill="none"><g clip-path="url(#a)"><path fill="#EEE" d="M0 0h512v512H0z"/><path fill="var(--flag-palette-green, #6da544)" d="M0 0h48v512H0z"/><path fill="var(--flag-palette-bright-red, #d80027)" d="M464 0h48v512h-48z"/><path fill="var(--flag-palette-light-blue, #338af3)" d="M208 408a64 64 0 0 1-64-64v-1.6l4.8-54.4-4.8-38.4V184h65.6l46.4 3 46.4-3H368v65.6l-3.5 50.6 3.5 42.2v1.6a64 64 0 0 1-64 64"/><path fill="#EEE" d="M352 335.8 295.8 392h-79.6L160 335.8v-79.6l56.2-56.2h79.6l56.2 56.2z"/><path fill="var(--flag-palette-dark-yellow, #ffc635)" d="M144 152h224v32H144z"/><path fill="var(--flag-palette-bright-red, #d80027)" d="M302.4 184h-92.8L144 249.6v92.8l65.6 65.6h92.8l65.6-65.6v-92.8zm45.2 150L294 387.6h-76L164.4 334v-76l53.6-53.6h76l53.6 53.6z"/><path fill="var(--flag-palette-green, #6da544)" d="M243.7 308.4c0 13.5-14 22.6-14 22.6h52.5s-13.9-9.1-13.9-22.6z"/><path fill="var(--flag-palette-dark-green, #496e2d)" d="M256 245c-4.8 0-9.1 2.2-12.3 5.4a17 17 0 0 0-25.7 12.9 17.2 17.2 0 0 0-6.8 25.6q3 4.3 7.9 6a17 17 0 0 0 16.7 15.3 17 17 0 0 0 7.9-1.8c3.2 3.3 7.5 5.4 12.3 5.4s9.1-2.2 12.3-5.4q3.4 2.3 7.5 2.2A17 17 0 0 0 293 295a17 17 0 0 0 8.5-25.1 17 17 0 0 0-7.4-6.6 17 17 0 0 0-17.6-15.3 17 17 0 0 0-8 2.4A17 17 0 0 0 256 245"/><path fill="var(--flag-palette-dark-yellow, #ffc635)" d="m352 120-16-16-16 16-16-16-16 16-16-16-16 16-16-16-16 16-16-16-16 16-16-16-16 16-16-16v32h224v-32z"/></g><defs><clipPath id="a"><path fill="#fff" d="M0 0h512v512H0z"/></clipPath></defs></svg>
